X:1
T:[ID 2-72a]
T:[ID 2-72a]
T:Bezeichnung standardisiert: Menuett Menuet In dieser Quelle auch als: Menuetto
T:Urheber unbekannt Erstbeleg: 1767 (Datum in der schriftlichen Quelle) Datum in der hier transkribierten schriftlichen Quelle: 1799
C:Urheber unbekannt
C:Erstbeleg: 1767 (Datum in der schriftlichen Quelle)
C:Datum in der hier transkribierten schriftlichen Quelle: 1799
%%score 1 2
L:1/8
M:3/4
K:G
V:1 treble nm="Primo"
V:2 treble nm="Secondo"
V:1
 G2 G4 | g2 g4 | bagfed | c4 B2 | [DA]2 [DA]2 [DA]2 | AB c4 | Bd c2 B2 |{B} A6 :: BcdBcd | %9
 e2 edcB | ABcBAG | TF2 EF D2 | G2 G4 | g2 g4 | (3edc B2 B2 |{A} G6 :| %16
V:2
 !fermata!B,2 B,4 | B2 B4 | gfedcB | A4 G2 | F2 F2 F2 | FG A4 | GB A2 G2 |{G} F6 :: GABGAB | %9
 c2 cBAG | FGAGFE | D2 CD B,2 | B,2 B,4 | B2 B4 | (3cBA G2 D2 |{C} B,6 :| %16

